assets/icons/folder_icons/folder-scripts-open.svg

<?xml version="1.0" encoding="UTF-8"?><svg id="Done" xmlns="http://www.w3.org/2000/svg" xmlns:xlink="http://www.w3.org/1999/xlink" viewBox="0 0 14 14"><defs><style>.cls-1{fill:#a040ff;}.cls-2{opacity:.3;}.cls-2,.cls-3{isolation:isolate;}.cls-4{fill:#ffe9a3;}.cls-4,.cls-5{fill-rule:evenodd;}.cls-6{fill:url(#linear-gradient);}.cls-3{fill:url(#radial-gradient);opacity:.711;}</style><radialGradient id="radial-gradient" cx="135.246" cy="-92.0761" fx="135.246" fy="-92.0761" r="1.5875" gradientTransform="translate(-344.606 -480.7402) rotate(33.6901) scale(4.1287 -2.2712)" gradientUnits="userSpaceOnUse"><stop offset="0" stop-color="#000"/><stop offset="1" stop-color="#000" stop-opacity="0"/></radialGradient><linearGradient id="linear-gradient" x1="96.7736" y1="-136.2097" x2="97.3027" y2="-136.2097" gradientTransform="translate(-360.7584 -506.3085) scale(3.7795 -3.7795)" gradientUnits="userSpaceOnUse"><stop offset="0" stop-color="#000"/><stop offset="1" stop-color="#000" stop-opacity="0"/></linearGradient></defs><g id="Layer_30"><path id="path489" class="cls-1" d="m0,0v12l4.1131,1.9355c.3105.1468.681.0135.8275-.2976.0393-.0834.0596-.1746.0594-.2668v-2.3711h6V1c-.004-.745-.4086-.9893-1-1H0Z"/><g id="g502"><path id="path497" class="cls-2" d="m-.0179,0l4.0855,1.5882c.5621.2185.9324.7597.9324,1.3628v8.049h6V1c-.004-.745-.4093-.9893-1.0016-1H-.0179Z"/><path id="path498" class="cls-3" d="m10,11c.7057-.0798,1.0812-.3798,1-.9844v-5.0156c.6647-.0018.998-.3352,1-1V1C12.0053.3601,11.6907.0097,11,0H0v11h10Z"/><g id="g505"><path id="path503" class="cls-5" d="m4,3l10-.0047v9.0023s-.1384,1.9581-2.0023,2.0023l-7.0779.0047c-3.0035,0-3.0035-4.0047-3.0035-4.0047h2.0837V3Z"/><path id="path504" class="cls-4" d="m5,4l8-.0047v8.0023s0,1.0023-1.0023,1.0023l-7.0861.0047c-2.0047,0-2.0047-2.0047-2.0047-2.0047h2.0931V4Z"/><path id="path505" class="cls-5" d="m11.0415,10l-6.0415.0046v.9954l5.0461-.0046s0,.9954.9954.9954c0,0,.9954,0,.9954-.9954-.9954,0-.9954-.9954-.9954-.9954Z"/></g><path id="path502" class="cls-6" d="m5,4h2v9h-2V4Z"/></g><path class="cls-1" d="m5,2.9511c.0005-.6031-.3694-1.1446-.9315-1.3632L0,.0056v11.994l4.1131,1.9355c.3105.1468.681.0135.8275-.2976.033-.0701.0446-.1472.0499-.2242l.0095-10.4621Z"/></g></svg>

<svg xmlns="http://www.w3.org/2000/svg" id="Done" viewBox="0 0 14 14"><defs><radialGradient id="radial-gradient" cx="135.246" cy="-92.076" r="1.587" fx="135.246" fy="-92.076" gradientTransform="matrix(3.43528 2.2902 1.25984 -1.88975 -344.606 -480.74)" gradientUnits="userSpaceOnUse"><stop offset="0"/><stop offset="1" stop-opacity="0"/></radialGradient><linearGradient id="linear-gradient" x1="96.774" x2="97.303" y1="-136.21" y2="-136.21" gradientTransform="matrix(3.7795 0 0 -3.7795 -360.758 -506.308)" gradientUnits="userSpaceOnUse"><stop offset="0"/><stop offset="1" stop-opacity="0"/></linearGradient><style>.cls-1{fill:#a040ff}.cls-5{fill-rule:evenodd}</style></defs><g id="Layer_30"><path id="folder" d="M0 0v12l4.113 1.936A.62.62 0 0 0 5 13.37V11h6V1c-.004-.745-.409-.99-1-1z" class="cls-1"/><path id="folder_shadow" d="m-.018 0 4.086 1.588c.562.219.932.76.932 1.363V11h6V1c-.004-.745-.41-.99-1.002-1z" opacity=".3" style="isolation:isolate"/><path id="flap_shadow" fill="url(#radial-gradient)" d="M10 11c.706-.08 1.081-.38 1-.984V5q.997-.003 1-1V1c.005-.64-.31-.99-1-1H0v11z" opacity=".711" style="isolation:isolate"/><path id="path464" d="m4 3 10-.005v9.003s-.138 1.958-2.002 2.002l-7.078.005C1.916 14.005 1.916 10 1.916 10H4z" class="cls-5"/><path id="path465" fill="#ffe9a3" fill-rule="evenodd" d="m5 4 8-.005v8.003S13 13 11.998 13l-7.086.005C2.907 13.005 2.907 11 2.907 11H5z"/><path id="path466" d="M11.042 10 5 10.005V11l5.046-.005s0 .996.995.996c0 0 .996 0 .996-.996-.996 0-.996-.995-.996-.995" class="cls-5"/><path id="icon_shadow" fill="url(#linear-gradient)" d="M5 4h2v9H5z"/><path id="flap" d="M5 2.951c0-.603-.37-1.145-.931-1.363L0 .006V12l4.113 1.935c.31.147.681.014.828-.298a.6.6 0 0 0 .05-.224z" class="cls-1"/></g></svg>
